Static/3pl-white-logo.svg

<svg width="265" height="56" viewBox="0 0 265 56" fill="none" xmlns="http://www.w3.org/2000/svg">
<path d="M35.5359 23.3306V51.3359L26.6513 56V28L17.7667 23.3359V23.3306L26.6513 18.6665L35.5359 23.3306Z" fill="#8FD348"/>
<path d="M53.3177 13.9916V42.007L44.4423 46.6658L44.4331 46.661V37.338L44.4428 37.3323L44.4331 37.3275V28.0046L44.4433 27.9993L44.4331 27.994V18.6711L44.4428 18.6663L44.4331 18.6605L35.5533 13.9993L44.4331 9.33757L44.4423 9.33228L53.3177 13.9916Z" fill="#8FD348"/>
<path d="M35.5379 4.66411V4.66892L17.7687 13.9971L17.7643 14L8.88411 18.6612L8.87486 18.667L0 14.0077V13.9923L8.87486 9.33302L8.88411 9.33831V9.32821L17.7643 4.667L17.7687 4.66892V4.66411L26.6533 9.53674e-06L35.5379 4.66411Z" fill="#8FD348"/>
<path d="M79.0985 41.9587C77.3412 41.9587 75.7204 41.6397 74.2354 41.003C72.7494 40.3664 71.5547 39.3915 70.6508 38.0783C69.7463 36.7661 69.2685 35.0906 69.2169 33.051H74.9133C74.9387 33.8414 75.113 34.5486 75.4364 35.1728C75.7593 35.7979 76.2371 36.288 76.8703 36.6445C77.5029 37.002 78.2462 37.1798 79.0985 37.1798C79.925 37.1798 80.6224 37.0212 81.1908 36.7022C81.7592 36.3836 82.1985 35.9632 82.5087 35.4404C82.8185 34.9186 82.9734 34.3127 82.9734 33.6247C82.9734 32.8093 82.78 32.1275 82.3923 31.5792C82.0047 31.0315 81.4489 30.611 80.7257 30.3175C80.0024 30.0248 79.1501 29.8778 78.1682 29.8778H76.1534V25.1757H78.1682C79.2787 25.1757 80.2416 24.9211 81.0554 24.4113C81.8693 23.9015 82.2759 23.0986 82.2759 22.0026C82.2759 21.1108 81.9857 20.4035 81.4041 19.8808C80.8231 19.359 80.0414 19.0971 79.0595 19.0971C77.9228 19.0971 77.0446 19.4354 76.4246 20.1104C75.8046 20.786 75.4686 21.5951 75.4169 22.5379H69.798C69.8759 20.8047 70.3079 19.3205 71.0964 18.0842C71.884 16.8484 72.9623 15.9052 74.3323 15.2551C75.7009 14.605 77.2901 14.2802 79.0985 14.2802C80.9838 14.2802 82.592 14.6117 83.9231 15.2743C85.2532 15.9374 86.2609 16.8225 86.9457 17.9309C87.63 19.0399 87.9729 20.244 87.9729 21.5437C87.9729 22.6143 87.7654 23.5507 87.3524 24.3536C86.9389 25.1565 86.4031 25.8196 85.7442 26.3419C85.0857 26.8647 84.3814 27.2399 83.6323 27.4696C84.64 27.6483 85.5177 28.0303 86.2672 28.6165C87.0163 29.2032 87.5978 29.9417 88.0113 30.834C88.4243 31.7263 88.6313 32.7329 88.6313 33.8539C88.6313 35.3323 88.2631 36.6897 87.5267 37.9255C86.7908 39.1618 85.7115 40.143 84.2913 40.869C82.8701 41.5955 81.1392 41.9587 79.0985 41.9587Z" fill="white"/>
<path d="M96.9701 26.9722H101.349C102.873 26.9722 103.971 26.6282 104.643 25.9401C105.314 25.252 105.65 24.3343 105.65 23.1874C105.65 21.9895 105.314 21.0598 104.643 20.3967C103.971 19.7341 102.873 19.4026 101.349 19.4026H96.9701V26.9722ZM91.1572 41.4998V14.7385H101.736C103.958 14.7385 105.792 15.1084 107.239 15.8474C108.686 16.5869 109.77 17.5868 110.494 18.8481C111.217 20.1098 111.579 21.5566 111.579 23.1874C111.579 24.6399 111.236 26.004 110.552 27.2778C109.867 28.5525 108.795 29.5851 107.336 30.3745C105.876 31.1649 104.009 31.5599 101.736 31.5599H96.9701V41.4998H91.1572Z" fill="white"/>
<path d="M113.402 41.5002V14.7394H119.215V37.0658H130.918V41.5002H113.402Z" fill="white"/>
<path d="M146.81 41.5002V16.9564H138.672V14.7394H157.66V16.9564H149.522V41.5002H146.81Z" fill="white"/>
<path d="M164.166 41.9587C162.357 41.9587 160.756 41.5441 159.361 40.7162C157.966 39.8883 156.867 38.7284 156.067 37.2375C155.266 35.7465 154.865 33.9942 154.865 31.9809C154.865 29.9677 155.259 28.2216 156.047 26.7431C156.835 25.2651 157.94 24.1187 159.361 23.3023C160.781 22.4869 162.409 22.079 164.243 22.079C166.103 22.079 167.692 22.4937 169.01 23.3215C170.327 24.1499 171.335 25.2272 172.033 26.5519C172.73 27.8775 173.079 29.3046 173.079 30.834V31.6364C173.079 31.9175 173.065 32.2356 173.04 32.5926H156.958V30.2987H170.443C170.366 28.4383 169.733 26.9858 168.545 25.9402C167.356 24.8956 165.884 24.3729 164.127 24.3729C162.964 24.3729 161.88 24.628 160.872 25.1373C159.864 25.6476 159.05 26.3933 158.43 27.374C157.81 28.3556 157.501 29.5722 157.501 31.0247V32.0573C157.501 33.765 157.823 35.1863 158.469 36.3197C159.115 37.4542 159.948 38.295 160.969 38.8428C161.989 39.3915 163.055 39.6649 164.166 39.6649C165.612 39.6649 166.827 39.3338 167.808 38.6708C168.79 38.0086 169.487 37.0909 169.901 35.9185H172.536C172.226 37.0654 171.697 38.0975 170.947 39.0148C170.197 39.9325 169.255 40.6528 168.119 41.1751C166.981 41.6974 165.664 41.9587 164.166 41.9587Z" fill="white"/>
<path d="M174.938 41.5007V22.5387H177.418L177.612 26.2471H177.729C178.116 25.3549 178.645 24.6029 179.317 23.9912C179.988 23.3796 180.79 22.9082 181.72 22.5767C182.65 22.2461 183.709 22.0799 184.897 22.0799V24.8705H184.161C183.282 24.8705 182.449 24.9796 181.661 25.1958C180.873 25.4125 180.182 25.782 179.589 26.3043C178.994 26.8271 178.523 27.5276 178.174 28.4069C177.826 29.2862 177.651 30.376 177.651 31.6757V41.5007H174.938Z" fill="white"/>
<path d="M186.181 41.4988V22.5368H188.661L188.932 25.6335H189.049C189.642 24.5885 190.45 23.7351 191.471 23.072C192.491 22.4094 193.737 22.0779 195.21 22.0779C196.088 22.0779 196.928 22.199 197.729 22.4412C198.529 22.6838 199.253 23.0908 199.899 23.6645C200.544 24.2377 201.087 25.0348 201.527 26.054H201.643C202.185 24.8052 203.057 23.8307 204.258 23.1292C205.459 22.4287 206.758 22.0779 208.153 22.0779C209.548 22.0779 210.788 22.371 211.873 22.9572C212.958 23.5439 213.817 24.4424 214.45 25.6523C215.083 26.8631 215.399 28.4117 215.399 30.2971V41.4988H212.687V30.6032C212.687 28.5136 212.26 26.9587 211.408 25.9391C210.555 24.92 209.354 24.4097 207.804 24.4097C206.745 24.4097 205.782 24.6586 204.917 25.1554C204.051 25.6523 203.373 26.3788 202.883 27.3345C202.392 28.2901 202.147 29.4693 202.147 30.8709V41.4988H199.434V30.6032C199.434 28.5136 199.008 26.9587 198.155 25.9391C197.302 24.92 196.101 24.4097 194.551 24.4097C193.466 24.4097 192.497 24.6908 191.645 25.2511C190.792 25.8118 190.12 26.6272 189.63 27.6977C189.139 28.7682 188.893 30.0939 188.893 31.6737V41.4988H186.181Z" fill="white"/>
<path d="M218.382 22.538H221.095V41.5H218.382V22.538ZM219.739 18.1415C219.196 18.1415 218.732 17.9508 218.344 17.5683C217.956 17.1858 217.762 16.7145 217.762 16.1538C217.762 15.5676 217.95 15.0967 218.324 14.7392C218.698 14.3827 219.17 14.2039 219.739 14.2039C220.281 14.2039 220.746 14.3827 221.134 14.7392C221.521 15.0967 221.715 15.5676 221.715 16.1538C221.715 16.7145 221.521 17.1858 221.134 17.5683C220.746 17.9508 220.281 18.1415 219.739 18.1415Z" fill="white"/>
<path d="M224.387 41.5002V22.5382H226.867L227.1 25.7878H227.216C227.862 24.5899 228.74 23.6727 229.851 23.0351C230.962 22.3984 232.241 22.0794 233.688 22.0794C235.185 22.0794 236.49 22.3725 237.602 22.9587C238.712 23.5453 239.578 24.4439 240.198 25.6537C240.818 26.8646 241.128 28.4132 241.128 30.2986V41.5002H238.415V30.6047C238.415 28.515 237.97 26.9602 237.079 25.9406C236.187 24.9215 234.901 24.4112 233.223 24.4112C232.06 24.4112 231.014 24.6923 230.084 25.2525C229.154 25.8133 228.423 26.6286 227.894 27.6992C227.364 28.7697 227.1 30.0954 227.1 31.6752V41.5002H224.387Z" fill="white"/>
<path d="M250.465 39.5885C251.395 39.5885 252.24 39.4102 253.003 39.0532C253.765 38.6967 254.423 38.1994 254.979 37.5623C255.535 36.9256 255.961 36.1669 256.258 35.2876C256.554 34.4083 256.704 33.4589 256.704 32.4393V32.2865H251.627C250.232 32.2865 249.114 32.4528 248.275 32.7833C247.436 33.1149 246.828 33.5545 246.454 34.1023C246.079 34.651 245.892 35.2814 245.892 35.9949C245.892 36.7084 246.066 37.3331 246.415 37.8679C246.764 38.4036 247.28 38.824 247.965 39.1296C248.649 39.4357 249.483 39.5885 250.465 39.5885ZM250.193 41.9587C248.591 41.9587 247.261 41.6844 246.202 41.1366C245.143 40.5889 244.355 39.8691 243.838 38.9768C243.321 38.085 243.063 37.1169 243.063 36.0713C243.063 34.7466 243.412 33.6309 244.109 32.7262C244.807 31.8219 245.788 31.1396 247.055 30.6807C248.32 30.2223 249.78 29.9927 251.433 29.9927H256.704C256.704 28.7953 256.503 27.7752 256.103 26.9343C255.702 26.0935 255.127 25.4564 254.378 25.023C253.629 24.5896 252.699 24.3729 251.588 24.3729C250.245 24.3729 249.082 24.7111 248.101 25.3857C247.119 26.0618 246.512 27.0492 246.279 28.3489H243.412C243.567 26.9728 244.051 25.8196 244.865 24.8889C245.679 23.9587 246.68 23.2581 247.868 22.7863C249.057 22.3149 250.296 22.079 251.588 22.079C253.371 22.079 254.837 22.4105 255.987 23.0731C257.136 23.7362 257.995 24.6472 258.564 25.8066C259.131 26.9665 259.416 28.3105 259.416 29.8399V41.4999H256.936L256.665 37.8299H256.549C256.29 38.3652 255.967 38.8879 255.58 39.3973C255.192 39.9075 254.747 40.3472 254.243 40.7162C253.739 41.0862 253.151 41.385 252.479 41.6147C251.808 41.8439 251.046 41.9587 250.193 41.9587Z" fill="white"/>
<path d="M262.015 14.548H264.727V41.5H262.015V14.548Z" fill="white"/>
</svg>

<svg xmlns="http://www.w3.org/2000/svg" width="265" height="56" fill="none"><path fill="#8FD348" d="M35.536 23.33v28.006L26.65 56V28l-8.884-4.664v-.005l8.884-4.665 8.885 4.665ZM53.318 13.992v28.015l-8.876 4.659-.009-.005v-9.323l.01-.006-.01-.005v-9.322l.01-.006-.01-.005v-9.323l.01-.005-.01-.006-8.88-4.66 8.88-4.662.01-.006 8.875 4.66ZM35.538 4.664v.005l-17.77 9.328-.004.003-8.88 4.661-.01.006L0 14.007v-.015l8.875-4.659.01.005v-.01l8.88-4.661.004.002v-.005L26.653 0l8.885 4.664Z"/><path fill="#fff" d="M79.099 41.959c-1.758 0-3.379-.32-4.864-.956a8.163 8.163 0 0 1-3.584-2.925c-.905-1.312-1.382-2.987-1.434-5.027h5.696c.026.79.2 1.498.523 2.122.323.625.801 1.115 1.434 1.471.633.358 1.376.536 2.228.536.827 0 1.524-.159 2.093-.478a3.463 3.463 0 0 0 1.318-1.262c.31-.521.464-1.127.464-1.815 0-.816-.193-1.498-.58-2.046-.388-.547-.944-.968-1.667-1.262-.724-.292-1.576-.44-2.558-.44h-2.015v-4.701h2.015c1.11 0 2.074-.255 2.887-.765.814-.51 1.22-1.312 1.22-2.408 0-.892-.29-1.6-.87-2.122-.582-.522-1.364-.784-2.346-.784-1.136 0-2.014.338-2.634 1.013-.62.676-.956 1.485-1.008 2.428h-5.619c.078-1.733.51-3.218 1.298-4.454.788-1.236 1.866-2.179 3.236-2.829 1.369-.65 2.958-.975 4.767-.975 1.885 0 3.493.332 4.824.994 1.33.663 2.338 1.549 3.023 2.657a6.753 6.753 0 0 1 1.027 3.613c0 1.07-.208 2.007-.62 2.81a6.002 6.002 0 0 1-1.609 1.988 6.397 6.397 0 0 1-2.112 1.128c1.008.178 1.886.56 2.635 1.146a5.945 5.945 0 0 1 1.744 2.218c.413.892.62 1.899.62 3.02 0 1.478-.368 2.836-1.104 4.072-.736 1.236-1.816 2.217-3.236 2.943-1.42.727-3.152 1.09-5.192 1.09ZM96.97 26.972h4.379c1.524 0 2.622-.344 3.294-1.032.671-.688 1.007-1.606 1.007-2.753 0-1.198-.336-2.127-1.007-2.79-.672-.663-1.77-.994-3.294-.994H96.97v7.57ZM91.157 41.5V14.739h10.579c2.222 0 4.056.37 5.503 1.108 1.447.74 2.531 1.74 3.255 3.001.723 1.262 1.085 2.709 1.085 4.34a8.52 8.52 0 0 1-1.027 4.09c-.685 1.274-1.757 2.307-3.216 3.097-1.46.79-3.327 1.185-5.6 1.185H96.97v9.94h-5.813ZM113.402 41.5V14.74h5.813v22.326h11.703V41.5h-17.516ZM146.81 41.5V16.956h-8.138V14.74h18.988v2.217h-8.138V41.5h-2.712ZM164.166 41.959c-1.809 0-3.41-.415-4.805-1.243-1.395-.828-2.494-1.988-3.294-3.479-.801-1.49-1.202-3.243-1.202-5.256 0-2.013.394-3.76 1.182-5.238.788-1.478 1.893-2.624 3.314-3.44 1.42-.816 3.048-1.224 4.882-1.224 1.86 0 3.449.415 4.767 1.242 1.317.829 2.325 1.906 3.023 3.23a9.064 9.064 0 0 1 1.046 4.283v.802c0 .282-.014.6-.039.957h-16.082v-2.294h13.485c-.077-1.86-.71-3.313-1.898-4.359-1.189-1.044-2.661-1.567-4.418-1.567a7.114 7.114 0 0 0-3.255.764 6.117 6.117 0 0 0-2.442 2.237c-.62.982-.929 2.198-.929 3.65v1.033c0 1.708.322 3.13.968 4.263.646 1.134 1.479 1.975 2.5 2.523a6.659 6.659 0 0 0 3.197.822c1.446 0 2.661-.331 3.642-.994.982-.662 1.679-1.58 2.093-2.752h2.635a8.228 8.228 0 0 1-1.589 3.096c-.75.917-1.692 1.638-2.828 2.16-1.138.522-2.455.784-3.953.784ZM174.938 41.5V22.54h2.48l.194 3.708h.117a6.503 6.503 0 0 1 1.588-2.256c.671-.611 1.473-1.083 2.403-1.414.93-.33 1.989-.497 3.177-.497v2.79h-.736c-.879 0-1.712.11-2.5.326a5.16 5.16 0 0 0-2.072 1.108c-.595.523-1.066 1.224-1.415 2.103-.348.88-.523 1.969-.523 3.269V41.5h-2.713ZM186.181 41.499V22.537h2.48l.271 3.097h.117a7.332 7.332 0 0 1 2.422-2.562c1.02-.663 2.266-.994 3.739-.994.878 0 1.718.121 2.519.363.8.243 1.524.65 2.17 1.224.645.573 1.188 1.37 1.628 2.389h.116c.542-1.249 1.414-2.223 2.615-2.925a7.6 7.6 0 0 1 3.895-1.051c1.395 0 2.635.293 3.72.88 1.085.586 1.944 1.484 2.577 2.694.633 1.211.949 2.76.949 4.645V41.5h-2.712V30.603c0-2.09-.427-3.644-1.279-4.664-.853-1.019-2.054-1.53-3.604-1.53-1.059 0-2.022.25-2.887.746-.866.497-1.544 1.224-2.034 2.18-.491.955-.736 2.134-.736 3.536v10.628h-2.713V30.603c0-2.09-.426-3.644-1.279-4.664-.853-1.019-2.054-1.53-3.604-1.53-1.085 0-2.054.282-2.906.842-.853.56-1.525 1.376-2.015 2.447-.491 1.07-.737 2.396-.737 3.976v9.825h-2.712ZM218.382 22.538h2.713V41.5h-2.713V22.538Zm1.357-4.396c-.543 0-1.007-.191-1.395-.574a1.908 1.908 0 0 1-.582-1.414c0-.586.188-1.057.562-1.415.374-.356.846-.535 1.415-.535a1.99 1.99 0 0 1 1.395.535c.387.358.581.829.581 1.415a1.91 1.91 0 0 1-.581 1.414 1.916 1.916 0 0 1-1.395.573ZM224.387 41.5V22.538h2.48l.233 3.25h.116c.646-1.198 1.524-2.115 2.635-2.753 1.111-.637 2.39-.956 3.837-.956 1.497 0 2.802.293 3.914.88 1.11.586 1.976 1.485 2.596 2.695.62 1.21.93 2.76.93 4.645V41.5h-2.713V30.605c0-2.09-.445-3.645-1.336-4.664-.892-1.02-2.178-1.53-3.856-1.53-1.163 0-2.209.281-3.139.841-.93.561-1.661 1.377-2.19 2.447-.53 1.07-.794 2.396-.794 3.976V41.5h-2.713ZM250.465 39.589c.93 0 1.775-.179 2.538-.536a5.933 5.933 0 0 0 1.976-1.49c.556-.637.982-1.396 1.279-2.275.296-.88.446-1.83.446-2.849v-.153h-5.077c-1.395 0-2.513.167-3.352.497-.839.332-1.447.771-1.821 1.32-.375.548-.562 1.178-.562 1.892 0 .713.174 1.338.523 1.873.349.536.865.956 1.55 1.262.684.306 1.518.459 2.5.459Zm-.272 2.37c-1.602 0-2.932-.275-3.991-.822-1.059-.548-1.847-1.268-2.364-2.16a5.691 5.691 0 0 1-.775-2.906c0-1.324.349-2.44 1.046-3.345.698-.904 1.679-1.586 2.946-2.045 1.265-.459 2.725-.688 4.378-.688h5.271c0-1.198-.201-2.218-.601-3.059-.401-.84-.976-1.478-1.725-1.911-.749-.433-1.679-.65-2.79-.65-1.343 0-2.506.338-3.487 1.013-.982.676-1.589 1.663-1.822 2.963h-2.867c.155-1.376.639-2.53 1.453-3.46a7.702 7.702 0 0 1 3.003-2.103 10 10 0 0 1 3.72-.707c1.783 0 3.249.331 4.399.994 1.149.663 2.008 1.574 2.577 2.734.567 1.16.852 2.504.852 4.033V41.5h-2.48l-.271-3.67h-.116a9.26 9.26 0 0 1-.969 1.567c-.388.51-.833.95-1.337 1.32a6.521 6.521 0 0 1-1.764.898c-.671.229-1.433.344-2.286.344ZM262.015 14.548h2.712V41.5h-2.712V14.548Z"/></svg>
